X:1
T:Partition sans titre
C:Compositeur / Arrangeur
L:1/8
M:4/4
I:linebreak $
K:D
V:1 treble nm="Violon" snm="Vln."
V:1
"D" f2 af gfed | f2 af gfed |"A" e2 ef gfed | edef gfed |"D" f2 af gfed | f2 af gfed | %6
"A" cdef gece |1"D" df"A"ec"D" d2 de :|2"D" df"A"ec"D" d2 ef |:"G" gB (3BBB gBaB | gB (3BBB gfed | %11
"A" (3cBA eA fAeA | (3Bcd ef gfef |"G" gB (3BBB gBaB | gB (3BBB gfed |"A" cdef gece |1 %16
"D" df"A"ec"D" d2 ef :|2"D" df"A"ec"D" d2 de |] %18
